src/assets/svg/API.svg

<svg width="58" height="58" viewBox="0 0 58 58" fill="none" xmlns="http://www.w3.org/2000/svg">
<g clip-path="url(#clip0)">
<path d="M4.86084 15.0635L28.9996 1.12695L53.1385 15.0635V42.9365L28.9996 56.8732L4.86084 42.9365V15.0635Z" stroke="white" stroke-width="2.00582"/>
<path d="M26.4836 38.2022H21.7154L20.3351 34.7138H13.4587L12.1537 38.2022H7.48584L14.9394 20.4341H19.1054L26.4836 38.2022ZM19.1556 31.2756L16.9471 25.1773L14.6884 31.2756H19.1556ZM41.4288 25.905C41.4288 27.21 41.0858 28.2975 40.3999 29.1675C39.7307 30.0375 38.8858 30.6482 37.8652 30.9996C36.8613 31.3342 35.6985 31.5015 34.3768 31.5015H32.2436V38.2022H27.9522V20.4341H34.4772C36.5853 20.4341 38.2667 20.8691 39.5215 21.7391C40.7931 22.5924 41.4288 23.981 41.4288 25.905ZM37.1374 25.9301C37.1374 24.5749 36.1335 23.8974 34.1259 23.8974H32.2436V28.0884H34.0506C36.1084 28.0884 37.1374 27.369 37.1374 25.9301ZM48.3213 38.2022H44.0048V20.4341H48.3213V38.2022Z" fill="white"/>
</g>
<defs>
<clipPath id="clip0">
<rect width="58" height="58" fill="white"/>
</clipPath>
</defs>
</svg>

<svg width="58" height="58" fill="none" xmlns="http://www.w3.org/2000/svg"><g clip-path="url(#a)"><path d="M4.86 15.063 29 1.127l24.139 13.936v27.874l-24.14 13.936L4.862 42.937V15.064z" stroke="#fff" stroke-width="2.006"/><path d="M26.484 38.202h-4.769l-1.38-3.488H13.46l-1.305 3.488H7.486l7.453-17.768h4.166l7.379 17.768zm-7.328-6.926-2.209-6.099-2.259 6.099h4.468zm22.273-5.371c0 1.305-.343 2.392-1.03 3.262A5.324 5.324 0 0 1 37.866 31c-1.004.334-2.166.502-3.488.502h-2.133v6.7h-4.292V20.434h6.525c2.108 0 3.79.435 5.045 1.305 1.271.853 1.907 2.242 1.907 4.166zm-4.292.025c0-1.355-1.004-2.033-3.011-2.033h-1.882v4.191h1.807c2.057 0 3.086-.719 3.086-2.158zm11.184 12.272h-4.316V20.434h4.316v17.768z" fill="#fff"/></g><defs><clipPath id="a"><path fill="#fff" d="M0 0h58v58H0z"/></clipPath></defs></svg>
